src/img/icons/planet.svg

<!-- Generated by IcoMoon.io -->
<svg version="1.1" xmlns="http://www.w3.org/2000/svg" width="1024" height="1024" viewBox="0 0 1024 1024">
<title></title>
<g id="icomoon-ignore">
</g>
<path fill="#000" d="M512 102.4c-226.216 0-409.6 183.384-409.6 409.6s183.384 409.6 409.6 409.6c226.217 0 409.6-183.383 409.6-409.6s-183.383-409.6-409.6-409.6zM0 512c0-282.77 229.23-512 512-512 282.767 0 512 229.23 512 512 0 282.767-229.233 512-512 512-282.77 0-512-229.233-512-512z"></path>
<path fill="#000" d="M0 512c0-28.277 22.923-51.2 51.2-51.2h921.6c28.278 0 51.2 22.923 51.2 51.2s-22.922 51.2-51.2 51.2h-921.6c-28.277 0-51.2-22.922-51.2-51.2z"></path>
<path fill="#000" d="M423.303 215.063c-31.42 73.384-52.103 178.332-52.103 296.936 0 118.606 20.683 223.55 52.103 296.935 15.75 36.782 33.188 63.278 49.945 79.831 16.537 16.338 29.575 20.465 38.753 20.465 9.18 0 22.216-4.127 38.753-20.465 16.758-16.553 34.196-43.049 49.946-79.831 31.416-73.385 52.101-178.33 52.101-296.935s-20.685-223.552-52.101-296.936c-15.749-36.784-33.188-63.278-49.946-79.83-16.538-16.337-29.573-20.464-38.753-20.464-9.178 0-22.216 4.127-38.753 20.464-16.756 16.552-34.195 43.046-49.945 79.83zM401.283 62.385c29.404-29.047 66.876-50.016 110.717-50.016 43.843 0 81.316 20.969 110.715 50.016 29.189 28.831 53.12 68.008 72.115 112.374 38.072 88.916 60.37 208.184 60.37 337.241s-22.298 248.326-60.37 337.24c-18.995 44.365-42.926 83.543-72.115 112.374-29.399 29.046-66.872 50.017-110.715 50.017-43.841 0-81.313-20.972-110.717-50.017-29.185-28.831-53.118-68.009-72.114-112.374-38.070-88.914-60.368-208.184-60.368-337.24s22.298-248.325 60.368-337.241c18.996-44.366 42.93-83.543 72.114-112.374z"></path>
</svg>

<svg xmlns="http://www.w3.org/2000/svg" viewBox="0 0 1024 1024"><path d="M512 102.4c-226.216 0-409.6 183.384-409.6 409.6S285.784 921.6 512 921.6c226.217 0 409.6-183.383 409.6-409.6S738.217 102.4 512 102.4zM0 512C0 229.23 229.23 0 512 0c282.767 0 512 229.23 512 512 0 282.767-229.233 512-512 512C229.23 1024 0 794.767 0 512z"/><path d="M0 512c0-28.277 22.923-51.2 51.2-51.2h921.6c28.278 0 51.2 22.923 51.2 51.2s-22.922 51.2-51.2 51.2H51.2C22.923 563.2 0 540.278 0 512z"/><path d="M423.303 215.063c-31.42 73.384-52.103 178.332-52.103 296.936 0 118.606 20.683 223.55 52.103 296.935 15.75 36.782 33.188 63.278 49.945 79.831 16.537 16.338 29.575 20.465 38.753 20.465 9.18 0 22.216-4.127 38.753-20.465 16.758-16.553 34.196-43.049 49.946-79.831 31.416-73.385 52.101-178.33 52.101-296.935S632.116 288.447 600.7 215.063c-15.749-36.784-33.188-63.278-49.946-79.83-16.538-16.337-29.573-20.464-38.753-20.464-9.178 0-22.216 4.127-38.753 20.464-16.756 16.552-34.195 43.046-49.945 79.83zm-22.02-152.678C430.687 33.338 468.159 12.369 512 12.369c43.843 0 81.316 20.969 110.715 50.016 29.189 28.831 53.12 68.008 72.115 112.374C732.902 263.675 755.2 382.943 755.2 512s-22.298 248.326-60.37 337.24c-18.995 44.365-42.926 83.543-72.115 112.374-29.399 29.046-66.872 50.017-110.715 50.017-43.841 0-81.313-20.972-110.717-50.017-29.185-28.831-53.118-68.009-72.114-112.374-38.07-88.914-60.368-208.184-60.368-337.24s22.298-248.325 60.368-337.241c18.996-44.366 42.93-83.543 72.114-112.374z"/></svg>
